X: 405
T: Danxiang zhu niangjia buxiang hui
%%abc-version 2.0
%%abcx-abcm2ps-target-version 5.9.1 (29 Sep 2008)
%%abc-creator hum2abc beta
%%abcx-conversion-date 2013/10/02 07:52:30
%%abc-edited-by Helmut Schaffrath
%%humdrum-veritas 3039235361
%%humdrum-veritas-data 1097725289
%%continueall 1
%%barnumbers 0
L: 1/16
M: 2/4
K: F
G2 G2 G f d f [I:setbarnb 1]| 
F2 D =B,C4 | 
C2 c2 =B c f d | 
G8 | 
G2 G2 G f d f | 
F2 D =B,C4 | 
C2 c2 =B c f D | 
C8 |]  



